src/assets/images/partner-logo-5.svg

<svg width="115" height="27" viewBox="0 0 115 27" fill="none" xmlns="http://www.w3.org/2000/svg">
<path d="M0.770996 26.6188C0.948407 25.8341 1.10025 24.9022 1.22653 23.824C1.35204 22.7457 1.45353 21.6179 1.53022 20.4405C1.60615 19.2615 1.64488 18.1135 1.64488 16.9981V9.62068C1.64488 8.50524 1.60615 7.35881 1.53022 6.1814C1.45353 5.00244 1.35204 3.87306 1.22653 2.7948C1.10025 1.71654 0.948407 0.785456 0.770996 0H5.52469C8.31368 0 10.4937 1.14178 12.0664 3.42378C13.6383 5.70424 14.4247 8.97465 14.4247 13.2335C14.4247 17.5178 13.6383 20.82 12.0664 23.1392C10.4937 25.4592 8.31368 26.6188 5.52469 26.6188H0.770996ZM5.44721 22.8913H5.90585C7.14695 22.8913 8.21142 22.1376 9.0977 20.6295C9.98553 19.1221 10.4302 16.6565 10.4302 13.2335C10.4302 10.9515 10.2203 9.11253 9.80115 7.71823C9.38357 6.32393 8.83197 5.31074 8.14634 4.67866C7.46226 4.04502 6.70226 3.72743 5.86556 3.72743H5.44721V22.8913Z" fill="#808991"/>
<path d="M21.3048 27C19.7592 27 18.4538 26.2022 17.3878 24.6049C16.3233 23.0061 15.7919 20.5211 15.7919 17.15C15.7919 13.7526 16.3233 11.249 17.3878 9.6394C18.4538 8.03053 19.7592 7.22571 21.3048 7.22571C22.8767 7.22571 24.1821 8.03053 25.2218 9.6394C26.263 11.249 26.7836 13.7526 26.7836 17.15C26.7836 20.5211 26.263 23.0061 25.2218 24.6049C24.1821 26.2022 22.8767 27 21.3048 27ZM21.3048 23.6909C22.0152 23.6909 22.535 23.1145 22.8635 21.9619C23.1936 20.8078 23.3593 19.2035 23.3593 17.15C23.3593 15.0454 23.1936 13.4164 22.8635 12.2638C22.535 11.1112 22.0152 10.5349 21.3048 10.5349C20.5959 10.5349 20.0761 11.1112 19.746 12.2638C19.4152 13.4164 19.2502 15.0454 19.2502 17.15C19.2502 19.2035 19.4152 20.8078 19.746 21.9619C20.0761 23.1145 20.5959 23.6909 21.3048 23.6909Z" fill="#808991"/>
<path d="M33.5874 27C32.0418 27 30.7364 26.2022 29.6704 24.6049C28.6059 23.0061 28.0745 20.5211 28.0745 17.15C28.0745 13.7526 28.6059 11.249 29.6704 9.6394C30.7364 8.03053 32.0418 7.22571 33.5874 7.22571C35.1593 7.22571 36.4647 8.03053 37.5044 9.6394C38.5456 11.249 39.0662 13.7526 39.0662 17.15C39.0662 20.5211 38.5456 23.0061 37.5044 24.6049C36.4647 26.2022 35.1593 27 33.5874 27ZM33.5874 23.6909C34.2978 23.6909 34.8176 23.1145 35.1461 21.9619C35.4762 20.8078 35.6419 19.2035 35.6419 17.15C35.6419 15.0454 35.4762 13.4164 35.1461 12.2638C34.8176 11.1112 34.2978 10.5349 33.5874 10.5349C32.8785 10.5349 32.3587 11.1112 32.0286 12.2638C31.6978 13.4164 31.5328 15.0454 31.5328 17.15C31.5328 19.2035 31.6978 20.8078 32.0286 21.9619C32.3587 23.1145 32.8785 23.6909 33.5874 23.6909Z" fill="#808991"/>
<path d="M44.6922 26.9999C43.4752 26.9999 42.461 26.1958 41.6491 24.5862C40.8372 22.975 40.4313 20.4962 40.4313 17.1499C40.4313 13.8036 40.8295 11.314 41.6274 9.67955C42.427 8.04357 43.448 7.22558 44.6922 7.22558C45.5018 7.22558 46.2239 7.59352 46.8584 8.32863C47.4921 9.06451 47.9747 10.2179 48.3055 11.7896H48.572V9.54322C48.572 8.42778 48.5395 7.28755 48.476 6.12253C48.4117 4.95597 48.3164 3.84053 48.1909 2.77621C48.0646 1.71034 47.9252 0.785456 47.7725 0H52.8671C52.716 0.785456 52.5766 1.71034 52.4488 2.77621C52.3225 3.84053 52.2272 4.95597 52.1637 6.12253C52.1017 7.28755 52.0707 8.42778 52.0707 9.54322V17.0353C52.0707 18.1507 52.1017 19.2987 52.1637 20.4776C52.2272 21.6574 52.3225 22.7798 52.4488 23.8457C52.5766 24.91 52.716 25.8341 52.8671 26.6188H47.9616C48.2405 25.9851 48.4117 25.3701 48.476 24.7752C48.5395 24.1787 48.572 23.449 48.572 22.5877V22.2469H48.3427C48.0119 23.8689 47.5293 25.0664 46.8956 25.8411C46.2634 26.6141 45.5289 26.9999 44.6922 26.9999ZM46.1735 23.195C47.0102 23.195 47.5936 22.6249 47.9244 21.4846C48.2544 20.3444 48.4202 18.8998 48.4202 17.1499C48.4202 15.3513 48.2606 13.881 47.943 12.7408C47.6269 11.599 47.0366 11.0274 46.1735 11.0274C45.3879 11.0274 44.8115 11.5665 44.4443 12.6448C44.0763 13.7215 43.8927 15.2227 43.8927 17.1499C43.8927 19.0012 44.0763 20.4714 44.4443 21.5621C44.8115 22.6512 45.3879 23.195 46.1735 23.195Z" fill="#808991"/>
<path d="M55.1467 26.6188C55.3241 25.8341 55.4698 24.91 55.5837 23.8457C55.6991 22.7798 55.7882 21.6574 55.8502 20.4776C55.9137 19.2987 55.9462 18.1507 55.9462 17.0353V9.54322C55.9462 8.42778 55.9137 7.28755 55.8502 6.12253C55.7882 4.95597 55.6991 3.84053 55.5837 2.77621C55.4698 1.71034 55.3241 0.785456 55.1467 0H60.2072C60.0538 0.785456 59.9206 1.71034 59.8075 2.77621C59.6936 3.84053 59.5983 4.95597 59.5224 6.12253C59.4457 7.28755 59.4077 8.42778 59.4077 9.54322V17.0353C59.4077 18.1507 59.4457 19.2987 59.5224 20.4776C59.5983 21.6574 59.6936 22.7798 59.8075 23.8457C59.9206 24.91 60.0538 25.8341 60.2072 26.6188H55.1467Z" fill="#808991"/>
<path d="M68.3073 27C66.5324 27 65.0232 26.151 63.7798 24.4531C62.5379 22.7536 61.9174 20.2175 61.9174 16.8464C61.9174 14.7666 62.1761 13.0105 62.6952 11.579C63.2158 10.1475 63.8944 9.06464 64.7311 8.32876C65.5678 7.59365 66.4549 7.22571 67.3931 7.22571C68.8635 7.22571 70.0302 7.75864 70.8917 8.82451C71.7548 9.88882 72.1871 11.6495 72.1871 14.1074C72.1871 15.1469 72.0151 16.1229 71.6726 17.0354C71.3294 17.9487 70.8731 18.6838 70.3029 19.2415C69.7327 19.7992 69.0797 20.0781 68.3444 20.0781C67.6085 20.0781 67.0065 19.9007 66.5378 19.5451C66.0683 19.1904 65.7197 18.8604 65.4904 18.5567L65.3385 18.5939C65.3897 20.1664 65.7391 21.3965 66.386 22.2842C67.0321 23.1703 67.799 23.6134 68.6853 23.6134C69.2695 23.6134 69.7583 23.4941 70.1511 23.254C70.5431 23.0123 70.98 22.5746 71.4619 21.9402L71.7284 25.4415C71.2218 26.0488 70.7089 26.4601 70.1883 26.6747C69.6692 26.8916 69.0425 27 68.3073 27ZM67.0894 17.9092C67.6224 17.9092 68.0655 17.5552 68.4188 16.8464C68.7736 16.1361 68.965 15.2615 68.9921 14.222C68.9921 12.8525 68.8449 11.8889 68.5521 11.3312C68.2608 10.7734 67.8362 10.4946 67.2784 10.4946C66.747 10.4946 66.2907 10.9578 65.9087 11.8827C65.5283 12.8083 65.3137 14.1461 65.2642 15.8952C65.3897 16.5296 65.6174 17.0245 65.9459 17.3793C66.2759 17.7325 66.6571 17.9092 67.0894 17.9092Z" fill="#808991"/>
<path d="M73.8201 26.6188C73.9975 25.8341 74.1493 24.9022 74.2756 23.824C74.4011 22.7457 74.5026 21.6179 74.5793 20.4405C74.6552 19.2615 74.694 18.1135 74.694 16.9981V9.62068C74.694 8.50524 74.6552 7.35881 74.5793 6.1814C74.5026 5.00244 74.4011 3.87306 74.2756 2.7948C74.1493 1.71654 73.9975 0.785456 73.8201 0H83.8605L84.4307 4.37191C84.127 4.24642 83.7148 4.12636 83.1942 4.01249C82.6736 3.89707 81.9701 3.83898 81.0839 3.83898H78.4963V11.4828H79.4476C80.3355 11.4828 81.0389 11.4643 81.558 11.4271C82.0786 11.3899 82.5287 11.3333 82.9091 11.2567V15.5139C82.0972 15.3884 80.8545 15.3249 79.1811 15.3249H78.4963V17.3792C78.4963 19.0012 78.5784 20.662 78.7442 22.3615C78.9092 24.0594 79.1192 25.4785 79.3733 26.6188H73.8201Z" fill="#808991"/>
<path d="M90.7045 26.9995C89.4874 26.9995 88.5112 26.4681 87.776 25.4038C87.04 24.3379 86.6728 22.4494 86.6728 19.7367V15.2099C86.6728 14.3485 86.6403 13.443 86.5767 12.4926C86.5124 11.5406 86.4233 10.6335 86.3102 9.77214C86.1963 8.91077 86.0507 8.18883 85.8733 7.60632H90.971C90.8176 8.18883 90.6773 8.91077 90.5495 9.77214C90.4232 10.6335 90.3279 11.5406 90.2644 12.4926C90.2024 13.443 90.1714 14.3485 90.1714 15.2099V18.8227C90.1714 21.7128 90.8424 23.1574 92.1857 23.1574C92.9209 23.1574 93.5229 22.7082 93.9924 21.8096C94.4611 20.9095 94.6958 19.7484 94.6958 18.327V15.2099C94.6958 14.3485 94.6633 13.443 94.5998 12.4926C94.5378 11.5406 94.4495 10.6335 94.3363 9.77214C94.2225 8.91077 94.0768 8.18883 93.8994 7.60632H98.994C98.8429 8.18883 98.7035 8.91077 98.5756 9.77214C98.4493 10.6335 98.3541 11.5406 98.2905 12.4926C98.2285 13.443 98.1976 14.3485 98.1976 15.2099V19.052C98.1976 19.8886 98.2285 20.7825 98.2905 21.7321C98.3541 22.6826 98.4493 23.5819 98.5756 24.4309C98.7035 25.2799 98.8429 26.0096 98.994 26.6184H94.0141C94.293 26.0359 94.4758 25.4658 94.5626 24.9081C94.6509 24.3503 94.6958 23.6152 94.6958 22.702V22.513H94.5068C94.2279 24.0583 93.7584 25.1923 93.0999 25.915C92.4406 26.6378 91.6419 26.9995 90.7045 26.9995Z" fill="#808991"/>
<path d="M101.198 26.6189C101.376 26.01 101.521 25.2804 101.635 24.4314C101.748 23.5824 101.838 22.6831 101.902 21.7326C101.965 20.783 101.998 19.8759 101.998 19.0122V15.2104C101.998 14.349 101.965 13.4435 101.902 12.4931C101.838 11.5411 101.748 10.634 101.635 9.77263C101.521 8.91126 101.376 8.18933 101.198 7.60682H106.219C105.964 8.16454 105.786 8.72845 105.686 9.29857C105.584 9.86868 105.534 10.6108 105.534 11.5233V11.7123H105.723C106.002 10.1654 106.47 9.03133 107.13 8.31016C107.79 7.58745 108.59 7.22571 109.528 7.22571C110.72 7.22571 111.69 7.75864 112.438 8.82451C113.186 9.88882 113.56 11.7889 113.56 14.5256V19.0122C113.56 19.8759 113.591 20.783 113.653 21.7326C113.716 22.6831 113.812 23.5824 113.938 24.4314C114.066 25.2804 114.205 26.01 114.356 26.6189H109.224C109.4 26.01 109.544 25.2804 109.658 24.4314C109.774 23.5824 109.863 22.6831 109.925 21.7326C109.988 20.783 110.021 19.8759 110.021 19.0122V15.4397C110.021 12.5233 109.349 11.0647 108.007 11.0647C107.271 11.0647 106.675 11.5155 106.219 12.4156C105.761 13.3165 105.534 14.4761 105.534 15.8952V19.0122C105.534 19.8759 105.565 20.783 105.627 21.7326C105.69 22.6831 105.785 23.5824 105.912 24.4314C106.04 25.2804 106.18 26.01 106.333 26.6189H101.198Z" fill="#808991"/>
</svg>

<svg xmlns="http://www.w3.org/2000/svg" width="115" height="27" fill="none" viewBox="0 0 115 27"><path fill="#808991" d="M.771 26.619q.266-1.178.456-2.795.188-1.617.303-3.384.114-1.768.115-3.442V9.621q0-1.674-.115-3.44a67 67 0 0 0-.303-3.386A27 27 0 0 0 .77 0h4.754q4.183 0 6.541 3.424 2.359 3.42 2.359 9.81 0 6.426-2.359 9.905-2.358 3.48-6.541 3.48zm4.676-3.728h.459q1.862 0 3.192-2.261 1.332-2.262 1.332-7.396 0-3.424-.629-5.516-.626-2.09-1.655-3.04-1.026-.95-2.28-.95h-.419zM21.305 27q-2.318 0-3.917-2.395-1.597-2.398-1.596-7.455 0-5.096 1.596-7.51 1.598-2.415 3.917-2.414 2.357 0 3.917 2.413 1.562 2.415 1.562 7.511 0 5.057-1.562 7.455Q23.662 27 21.305 27m0-3.31q1.066 0 1.558-1.728.495-1.732.496-4.812 0-3.158-.496-4.886-.492-1.73-1.558-1.73-1.065 0-1.559 1.73-.495 1.728-.496 4.886 0 3.08.496 4.812.495 1.729 1.559 1.729M33.587 27q-2.317 0-3.917-2.395-1.596-2.398-1.596-7.455 0-5.096 1.596-7.51 1.6-2.415 3.917-2.414 2.358 0 3.917 2.413 1.563 2.415 1.562 7.511 0 5.057-1.562 7.455Q35.944 27 33.587 27m0-3.31q1.065 0 1.56-1.728.495-1.732.495-4.812 0-3.158-.496-4.886-.492-1.73-1.559-1.73-1.063 0-1.558 1.73-.496 1.728-.496 4.886 0 3.08.496 4.812.495 1.729 1.558 1.729M44.692 27q-1.825 0-3.043-2.414-1.218-2.417-1.218-7.436t1.196-7.47q1.2-2.454 3.065-2.454 1.215 0 2.166 1.103.951 1.104 1.448 3.46h.266V9.544q0-1.672-.096-3.42a54 54 0 0 0-.285-3.347A39 39 0 0 0 47.772 0h5.095a40 40 0 0 0-.418 2.776 53 53 0 0 0-.285 3.347 64 64 0 0 0-.093 3.42v7.492q0 1.674.093 3.443.095 1.77.285 3.368a40 40 0 0 0 .418 2.773h-4.905a6.3 6.3 0 0 0 .514-1.844q.095-.895.096-2.187v-.341h-.23q-.496 2.433-1.446 3.594-.949 1.16-2.204 1.159m1.481-3.805q1.255 0 1.751-1.71.495-1.71.496-4.335 0-2.698-.477-4.41-.474-1.712-1.77-1.713-1.177 0-1.729 1.618-.552 1.615-.551 4.505 0 2.776.551 4.412.55 1.634 1.73 1.633M55.147 26.619a25 25 0 0 0 .437-2.773q.173-1.6.266-3.368a64 64 0 0 0 .096-3.443V9.543q0-1.672-.096-3.42a61 61 0 0 0-.266-3.347A25 25 0 0 0 55.147 0h5.06q-.23 1.177-.4 2.776a81 81 0 0 0-.285 3.347 52 52 0 0 0-.114 3.42v7.492q0 1.674.114 3.443.115 1.77.285 3.368.17 1.596.4 2.773zM68.307 27q-2.663 0-4.527-2.547-1.863-2.55-1.863-7.607 0-3.12.778-5.267.781-2.146 2.036-3.25 1.255-1.103 2.662-1.103 2.206 0 3.499 1.599 1.295 1.596 1.295 5.282 0 1.56-.514 2.928-.515 1.37-1.37 2.206-.855.837-1.959.837-1.103 0-1.806-.533t-1.048-.988l-.151.037q.076 2.358 1.047 3.69.97 1.33 2.3 1.33.875 0 1.465-.36.588-.363 1.31-1.314l.267 3.502q-.76.91-1.54 1.233-.778.325-1.88.325m-1.218-9.09q.8 0 1.33-1.064.532-1.065.573-2.624 0-2.055-.44-2.89-.437-.838-1.274-.837-.796 0-1.37 1.388-.57 1.388-.644 4.012.189.953.682 1.484.495.53 1.143.53M73.82 26.619q.267-1.178.456-2.795.188-1.617.303-3.384a54 54 0 0 0 .115-3.442V9.621q0-1.674-.115-3.44a67 67 0 0 0-.303-3.386A27 27 0 0 0 73.82 0h10.04l.57 4.372a7.6 7.6 0 0 0-1.236-.36q-.78-.173-2.11-.173h-2.588v7.644h.952q1.331 0 2.11-.056.78-.056 1.351-.17v4.257q-1.218-.19-3.728-.19h-.685v2.055q0 2.433.248 4.982.248 2.547.63 4.258zM90.705 27q-1.827 0-2.929-1.596-1.103-1.599-1.103-5.667V15.21q0-1.292-.096-2.717a43 43 0 0 0-.267-2.72q-.171-1.293-.437-2.167h5.098a21 21 0 0 0-.422 2.166 35 35 0 0 0-.285 2.72q-.093 1.426-.093 2.718v3.613q0 4.335 2.015 4.334 1.103 0 1.806-1.347.704-1.35.704-3.483V15.21q0-1.292-.096-2.717-.093-1.429-.264-2.72-.171-1.293-.437-2.167h5.095q-.226.874-.418 2.166a35 35 0 0 0-.285 2.72q-.093 1.426-.093 2.718v3.842q0 1.255.093 2.68.095 1.425.285 2.699.192 1.274.418 2.187h-4.98a6.2 6.2 0 0 0 .549-1.71q.132-.837.133-2.206v-.189h-.19q-.418 2.318-1.406 3.402Q92.11 27 90.705 27M101.198 26.619q.267-.914.437-2.188.17-1.273.267-2.698a41 41 0 0 0 .096-2.72V15.21q0-1.292-.096-2.717a43 43 0 0 0-.267-2.72q-.17-1.293-.437-2.166h5.021a7 7 0 0 0-.533 1.692q-.153.856-.152 2.224v.19h.189q.418-2.322 1.407-3.403.99-1.084 2.398-1.084 1.788 0 2.91 1.599 1.122 1.596 1.122 5.7v4.487q0 1.296.093 2.72.095 1.426.285 2.7.192 1.273.418 2.187h-5.132q.264-.914.434-2.188.174-1.273.267-2.698a41 41 0 0 0 .096-2.72V15.44q0-4.375-2.014-4.375-1.104 0-1.788 1.35-.686 1.352-.685 3.48v3.117q0 1.296.093 2.72.095 1.426.285 2.7.192 1.273.421 2.187z"/></svg>
